packages/core/src/svgs/alu.svg

<svg width="24" height="24" viewBox="0 0 24 24" fill="none" xmlns="http://www.w3.org/2000/svg">
<g clip-path="url(#clip0_31_5926)">
<path d="M0 0H24V24H0V0Z" fill="#F0F3FA"/>
<path fill-rule="evenodd" clip-rule="evenodd" d="M12.0043 5.14307C12.2972 5.1528 12.5836 5.23259 12.8393 5.37576C13.0951 5.51892 13.3128 5.7213 13.4743 5.96592L15.9943 10.2859L17.2329 8.16878C17.4729 7.75735 18.0043 7.61164 18.4243 7.84735C18.84 8.07878 18.9814 8.60592 18.7414 9.01735L16.9971 12.0045L18.7414 14.9874C18.9814 15.4031 18.84 15.9302 18.4243 16.1616C18.0086 16.3974 17.4729 16.2474 17.2329 15.8359L15.9943 13.7188L13.4743 18.0388L13.41 18.1374C13.2428 18.3551 13.029 18.5328 12.7843 18.6574C12.5396 18.782 12.2702 18.8503 11.9957 18.8574C11.7441 18.8549 11.4961 18.7977 11.2688 18.6896C11.0416 18.5816 10.8407 18.4253 10.68 18.2316C10.6212 18.1747 10.5707 18.1098 10.53 18.0388L10.4957 17.9788C10.4607 17.9244 10.4278 17.8686 10.3971 17.8116L9.75428 16.7145L9.35142 16.0288L8.00999 13.7145L6.77571 15.8316C6.53571 16.2474 6.00428 16.3888 5.58428 16.1574C5.48521 16.1022 5.39819 16.0278 5.32837 15.9384C5.25856 15.8491 5.20735 15.7466 5.17779 15.6372C5.14822 15.5277 5.1409 15.4134 5.15624 15.3011C5.17159 15.1887 5.2093 15.0806 5.26714 14.9831L7.01142 12.0002L5.26714 9.01307C5.20998 8.91571 5.17282 8.80794 5.15784 8.69604C5.14286 8.58415 5.15036 8.47039 5.17989 8.36144C5.20943 8.25248 5.26041 8.15051 5.32985 8.0615C5.39928 7.97249 5.48578 7.89823 5.58428 7.84307C5.99999 7.60735 6.53571 7.75307 6.77571 8.16449L8.00571 10.2859L9.93428 6.98592L10.3928 6.19735C10.4271 6.12878 10.47 6.06021 10.5171 5.98735L10.53 5.96592C10.5643 5.90592 10.6071 5.85021 10.6586 5.79878C10.9414 5.45592 11.3743 5.15592 12.0043 5.14307ZM14.3314 10.8731L14.9914 12.0045L12 17.1259L9.00856 12.0045L9.72428 10.7788L12.0386 14.9488L14.3314 10.8774V10.8731ZM13.35 9.19307L12 6.87878L10.7271 9.06449L12.0386 11.4216L13.35 9.19307Z" fill="url(#paint0_linear_31_5926)"/>
<path d="M14.9914 10.243C14.6743 10.243 14.43 10.6844 14.3357 10.873L15.0128 12.0001L15.7586 11.2801C15.66 10.723 15.39 10.2301 14.9914 10.2344V10.243Z" fill="url(#paint1_linear_31_5926)"/>
<path d="M9.01714 10.2344C9.33429 10.2387 9.63 10.5987 9.72429 10.783L9.00857 12.0044L8.25 11.2758C8.34857 10.7187 8.61857 10.2301 9.01714 10.2344Z" fill="url(#paint2_linear_31_5926)"/>
<path d="M11.3572 6.43701C11.6786 6.44987 11.9143 6.7413 12 6.87844L11.3658 7.95844L10.29 7.3413C10.6243 6.7413 10.95 6.42415 11.3529 6.4413L11.3572 6.43701Z" fill="url(#paint3_linear_31_5926)"/>
<path d="M11.3399 17.563C11.6656 17.5501 11.9142 17.263 11.9999 17.1259L11.0485 15.5059L9.9856 16.1059C10.0456 16.2216 10.4013 16.8773 10.4656 16.9716C10.7356 17.3701 11.0142 17.5759 11.3399 17.563Z" fill="url(#paint4_linear_31_5926)"/>
</g>
<defs>
<linearGradient id="paint0_linear_31_5926" x1="12" y1="5.14307" x2="12" y2="18.8574" gradientUnits="userSpaceOnUse">
<stop stop-color="#00D1FF"/>
<stop offset="1" stop-color="#EC1EFF"/>
</linearGradient>
<linearGradient id="paint1_linear_31_5926" x1="14.5414" y1="10.4958" x2="15.3171" y2="11.7087" gradientUnits="userSpaceOnUse">
<stop stop-color="#4B7DDF"/>
<stop offset="1" stop-color="#717BFF"/>
</linearGradient>
<linearGradient id="paint2_linear_31_5926" x1="9.46714" y1="10.4915" x2="8.58" y2="11.5844" gradientUnits="userSpaceOnUse">
<stop stop-color="#4B7DDF"/>
<stop offset="1" stop-color="#6F7CFF"/>
</linearGradient>
<linearGradient id="paint3_linear_31_5926" x1="11.6315" y1="6.43701" x2="10.8515" y2="7.66273" gradientUnits="userSpaceOnUse">
<stop stop-color="#08A9D8"/>
<stop offset="1" stop-color="#2BB0FF"/>
</linearGradient>
<linearGradient id="paint4_linear_31_5926" x1="11.567" y1="17.4816" x2="10.5899" y2="15.733" gradientUnits="userSpaceOnUse">
<stop stop-color="#A526CA"/>
<stop offset="1" stop-color="#B746FF"/>
</linearGradient>
<clipPath id="clip0_31_5926">
<rect width="24" height="24" fill="white"/>
</clipPath>
</defs>
</svg>

<svg xmlns="http://www.w3.org/2000/svg" width="24" height="24" fill="none" viewBox="0 0 24 24"><g clip-path="url(#a)"><path fill="#F0F3FA" d="M0 0h24v24H0z"/><path fill="url(#b)" fill-rule="evenodd" d="M12.004 5.143a1.83 1.83 0 0 1 1.47.823l2.52 4.32 1.239-2.117a.88.88 0 0 1 1.191-.322.85.85 0 0 1 .317 1.17l-1.744 2.988 1.744 2.982a.85.85 0 0 1-.317 1.175.884.884 0 0 1-1.191-.326l-1.239-2.117-2.52 4.32-.064.098a1.84 1.84 0 0 1-1.414.72 1.73 1.73 0 0 1-1.316-.625.9.9 0 0 1-.15-.193l-.034-.06a3 3 0 0 1-.099-.167l-.643-1.098-.403-.685-1.341-2.315-1.234 2.118a.883.883 0 0 1-1.192.325.85.85 0 0 1-.317-1.174L7.011 12 5.267 9.013a.85.85 0 0 1 .317-1.17.883.883 0 0 1 1.192.321l1.23 2.122 1.928-3.3.459-.789q.052-.101.124-.21l.013-.021a.8.8 0 0 1 .129-.167 1.74 1.74 0 0 1 1.345-.656m2.327 5.73.66 1.132L12 17.125l-2.991-5.12.715-1.226 2.315 4.17 2.292-4.072zm-.981-1.68L12 6.88l-1.273 2.185 1.312 2.358z" clip-rule="evenodd"/><path fill="url(#c)" d="M14.991 10.243c-.317 0-.561.441-.655.63L15.013 12l.746-.72c-.099-.557-.369-1.05-.768-1.046z"/><path fill="url(#d)" d="M9.017 10.234c.317.005.613.365.707.549l-.715 1.221-.759-.728c.099-.557.369-1.046.767-1.042"/><path fill="url(#e)" d="M11.357 6.437c.322.013.557.304.643.441l-.634 1.08-1.076-.617c.334-.6.66-.917 1.063-.9z"/><path fill="url(#f)" d="M11.34 17.563c.326-.013.574-.3.66-.437l-.951-1.62-1.063.6c.06.116.415.771.48.866.27.398.548.604.874.591"/></g><defs><linearGradient id="b" x1="12" x2="12" y1="5.143" y2="18.857" gradientUnits="userSpaceOnUse"><stop stop-color="#00D1FF"/><stop offset="1" stop-color="#EC1EFF"/></linearGradient><linearGradient id="c" x1="14.541" x2="15.317" y1="10.496" y2="11.709" gradientUnits="userSpaceOnUse"><stop stop-color="#4B7DDF"/><stop offset="1" stop-color="#717BFF"/></linearGradient><linearGradient id="d" x1="9.467" x2="8.58" y1="10.492" y2="11.584" gradientUnits="userSpaceOnUse"><stop stop-color="#4B7DDF"/><stop offset="1" stop-color="#6F7CFF"/></linearGradient><linearGradient id="e" x1="11.632" x2="10.851" y1="6.437" y2="7.663" gradientUnits="userSpaceOnUse"><stop stop-color="#08A9D8"/><stop offset="1" stop-color="#2BB0FF"/></linearGradient><linearGradient id="f" x1="11.567" x2="10.59" y1="17.482" y2="15.733" gradientUnits="userSpaceOnUse"><stop stop-color="#A526CA"/><stop offset="1" stop-color="#B746FF"/></linearGradient><clipPath id="a"><path fill="#fff" d="M0 0h24v24H0z"/></clipPath></defs></svg>
